usr/share/icons/biglinux-icons-material/scalable/mimetypes/application-x-remote-connection.svg

<svg width="24" height="24" viewBox="0 0 24 24" fill="none" xmlns="http://www.w3.org/2000/svg">
<rect x="1" y="1" width="22" height="22" rx="6.6" fill="url(#paint0_radial_3_1123)"/>
<path opacity="0.5" d="M5.28501 6C5.12348 6.02034 5.00177 6.15682 5 6.31962V12.144C5 12.315 5.14658 12.4656 5.31758 12.4656H8.22873V13.5425H6.07692V14.6195H9.84554V11.3867H6.31511C6.19589 11.3815 6.10042 11.286 6.09525 11.1668V7.29882C6.09117 7.19703 6.16446 7.09728 6.26218 7.07896C6.27907 7.07688 6.29617 7.07688 6.31307 7.07896H12.3064C12.4163 7.07896 12.5242 7.18075 12.5242 7.29679V8.69339H13.6174V6.31968C13.6111 6.14583 13.4717 6.00635 13.2978 6.00006" fill="white"/>
<path d="M10.6737 9.2328C10.5953 9.24329 10.5231 9.28109 10.4699 9.33955C10.4166 9.39802 10.3857 9.4734 10.3826 9.55242V15.3747C10.3826 15.5437 10.5373 15.6964 10.7083 15.6964H13.6134V17.3087H15.7692V15.6964H18.6784C18.7627 15.6933 18.8428 15.6585 18.9024 15.5988C18.9621 15.5391 18.997 15.4591 19 15.3747V9.55242C18.9965 9.46824 18.9615 9.38844 18.9019 9.32886C18.8423 9.26928 18.7625 9.23427 18.6784 9.23077M11.6488 10.3097C11.6623 10.3076 11.6761 10.3076 11.6895 10.3097H17.693C17.7496 10.3118 17.8033 10.3351 17.8434 10.3752C17.8834 10.4152 17.9068 10.4689 17.9088 10.5255V14.4037C17.9068 14.4603 17.8834 14.514 17.8434 14.554C17.8033 14.594 17.7496 14.6174 17.693 14.6195H11.6875C11.6309 14.6174 11.5772 14.594 11.5372 14.554C11.4971 14.514 11.4737 14.4603 11.4717 14.4037V10.5255C11.472 10.4745 11.4897 10.425 11.5219 10.3854C11.5541 10.3458 11.5989 10.3204 11.6488 10.3097ZM11.4595 16.7713V17.8502H17.9231V16.7713" fill="white"/>
<defs>
<radialGradient id="paint0_radial_3_1123" cx="0" cy="0" r="1" gradientUnits="userSpaceOnUse" gradientTransform="translate(17.5 1) rotate(116.565) scale(24.5967)">
<stop stop-color="#85C1EA"/>
<stop offset="1" stop-color="#3C90C9"/>
</radialGradient>
</defs>
</svg>

<svg xmlns="http://www.w3.org/2000/svg" width="24" height="24" fill="none"><rect width="22" height="22" x="1" y="1" fill="url(#a)" rx="6.6"/><path fill="#fff" d="M5.285 6A.326.326 0 0 0 5 6.32v5.824c0 .171.147.322.318.322h2.91v1.077H6.078v1.077h3.769v-3.233h-3.53a.23.23 0 0 1-.22-.22V7.299c-.005-.102.068-.202.166-.22a.208.208 0 0 1 .051 0h5.993c.11 0 .218.102.218.218v1.396h1.093V6.32a.332.332 0 0 0-.32-.32" opacity=".5"/><path fill="#fff" d="M10.674 9.233a.336.336 0 0 0-.291.32v5.822c0 .169.154.321.325.321h2.905v1.613h2.156v-1.613h2.91a.334.334 0 0 0 .321-.321V9.552a.336.336 0 0 0-.322-.321m-7.03 1.079a.132.132 0 0 1 .042 0h6.003a.224.224 0 0 1 .216.215v3.879a.224.224 0 0 1-.216.216h-6.006a.224.224 0 0 1-.215-.216v-3.879a.221.221 0 0 1 .177-.216Zm-.188 6.461v1.08h6.463v-1.08"/><defs><radialGradient id="a" cx="0" cy="0" r="1" gradientTransform="rotate(116.565 8.441 5.908) scale(24.5967)" gradientUnits="userSpaceOnUse"><stop stop-color="#85C1EA"/><stop offset="1" stop-color="#3C90C9"/></radialGradient></defs></svg>
